{
 "compressionlevel": -1,
 "height": 24,
 "width": 32,
 "infinite": false,
 "orientation": "orthogonal",
 "renderorder": "right-down",
 "tileheight": 16,
 "tilewidth": 16,
 "type": "map",
 "version": "1.10",
 "tiledversion": "1.10.2",
 "nextlayerid": 6,
 "nextobjectid": 10,
 "properties": [
  {
   "name": "name",
   "type": "string",
   "value": "Meadowbrook Village"
  }
 ],
 "layers": [
  {
   "id": 1,
   "name": "ground",
   "type": "tilelayer",
   "width": 32,
   "height": 24,
   "x": 0,
   "y": 0,
   "opacity": 1,
   "visible": true,
   "data": [
    1,
    1,
    2,
    1,
    1,
    1,
    1,
    1,
    1,
    1,
    1,
    1,
    1,
    2,
    1,
    5,
    5,
    3,
    1,
    1,
    3,
    1,
    2,
    1,
    1,
    1,
    1,
    2,
    1,
    1,
    2,
    1,
    1,
    1,
    1,
    1,
    2,
    1,
    1,
    1,
    1,
    1,
    2,
    2,
    1,
    1,
    1,
    5,
    5,
    1,
    3,
    1,
    1,
    2,
    1,
    1,
    1,
    2,
    2,
    1,
    3,
    1,
    2,
    1,
    1,
    1,
    2,
    3,
    1,
    2,
    1,
    2,
    2,
    3,
    2,
    1,
    1,
    2,
    1,
    5,
    5,
    1,
    1,
    2,
    1,
    1,
    1,
    3,
    1,
    1,
    1,
    3,
    2,
    3,
    1,
    1,
    1,
    3,
    3,
    1,
    1,
    1,
    1,
    1,
    1,
    1,
    1,
    1,
    1,
    1,
    3,
    5,
    5,
    1,
    2,
    1,
    3,
    2,
    3,
    2,
    1,
    1,
    1,
    2,
    1,
    1,
    1,
    1,
    1,
    1,
    1,
    1,
    1,
    1,
    1,
    3,
    1,
    1,
    1,
    1,
    1,
    1,
    2,
    5,
    5,
    1,
    1,
    1,
    1,
    1,
    2,
    1,
    1,
    3,
    1,
    1,
    1,
    1,
    1,
    3,
    3,
    2,
    1,
    1,
    1,
    2,
    1,
    2,
    1,
    1,
    2,
    3,
    2,
    2,
    2,
    5,
    5,
    1,
    1,
    1,
    1,
    1,
    1,
    2,
    3,
    1,
    3,
    3,
    3,
    1,
    1,
    1,
    1,
    1,
    2,
    3,
    2,
    1,
    2,
    2,
    1,
    2,
    3,
    2,
    2,
    1,
    1,
    5,
    5,
    2,
    3,
    1,
    1,
    3,
    2,
    1,
    1,
    1,
    3,
    2,
    1,
    2,
    3,
    2,
    1,
    1,
    1,
    1,
    3,
    2,
    1,
    3,
    1,
    3,
    2,
    1,
    1,
    1,
    1,
    5,
    5,
    1,
    1,
    3,
    1,
    1,
    1,
    3,
    1,
    3,
    1,
    1,
    1,
    1,
    1,
    1,
    1,
    2,
    1,
    1,
    2,
    1,
    5,
    1,
    1,
    2,
    1,
    1,
    1,
    1,
    2,
    5,
    5,
    2,
    3,
    1,
    1,
    1,
    1,
    2,
    1,
    5,
    1,
    3,
    2,
    3,
    3,
    1,
    1,
    3,
    2,
    1,
    1,
    1,
    5,
    1,
    1,
    2,
    2,
    3,
    1,
    2,
    2,
    5,
    5,
    3,
    1,
    3,
    1,
    1,
    3,
    2,
    1,
    5,
    1,
    1,
    1,
    1,
    2,
    1,
    1,
    1,
    1,
    1,
    2,
    1,
    5,
    5,
    5,
    5,
    5,
    5,
    5,
    5,
    5,
    5,
    5,
    5,
    5,
    5,
    5,
    5,
    5,
    5,
    5,
    5,
    2,
    1,
    1,
    3,
    2,
    2,
    1,
    2,
    1,
    3,
    1,
    1,
    5,
    5,
    5,
    5,
    5,
    5,
    5,
    5,
    5,
    5,
    5,
    5,
    5,
    5,
    5,
    5,
    5,
    5,
    5,
    5,
    2,
    1,
    1,
    1,
    3,
    1,
    2,
    1,
    1,
    2,
    1,
    1,
    2,
    3,
    1,
    2,
    5,
    2,
    1,
    1,
    1,
    1,
    1,
    2,
    1,
    1,
    5,
    2,
    3,
    2,
    1,
    1,
    1,
    1,
    1,
    1,
    1,
    3,
    3,
    1,
    1,
    3,
    1,
    1,
    1,
    1,
    1,
    1,
    5,
    1,
    1,
    1,
    1,
    1,
    1,
    1,
    1,
    1,
    5,
    1,
    2,
    4,
    4,
    4,
    4,
    4,
    4,
    1,
    2,
    2,
    1,
    2,
    3,
    2,
    2,
    2,
    1,
    1,
    1,
    2,
    5,
    2,
    1,
    3,
    2,
    2,
    1,
    1,
    1,
    1,
    5,
    2,
    1,
    4,
    4,
    4,
    4,
    4,
    4,
    2,
    1,
    1,
    2,
    1,
    2,
    1,
    1,
    1,
    2,
    1,
    2,
    3,
    5,
    1,
    1,
    2,
    2,
    1,
    2,
    1,
    1,
    1,
    5,
    1,
    1,
    4,
    4,
    4,
    4,
    4,
    4,
    1,
    1,
    1,
    1,
    1,
    3,
    1,
    3,
    3,
    1,
    1,
    2,
    3,
    5,
    1,
    1,
    3,
    1,
    1,
    1,
    1,
    3,
    1,
    5,
    1,
    3,
    4,
    4,
    4,
    4,
    4,
    4,
    1,
    1,
    1,
    1,
    1,
    1,
    2,
    1,
    2,
    2,
    1,
    3,
    2,
    5,
    5,
    5,
    5,
    5,
    5,
    5,
    5,
    5,
    5,
    5,
    2,
    1,
    3,
    1,
    1,
    1,
    1,
    1,
    3,
    3,
    2,
    2,
    3,
    3,
    1,
    2,
    1,
    2,
    1,
    2,
    2,
    1,
    1,
    3,
    1,
    1,
    1,
    1,
    2,
    3,
    1,
    2,
    1,
    1,
    1,
    1,
    1,
    1,
    3,
    1,
    1,
    3,
    3,
    8,
    8,
    8,
    8,
    8,
    8,
    8,
    8,
    8,
    8,
    8,
    8,
    8,
    8,
    8,
    8,
    8,
    8,
    8,
    8,
    8,
    8,
    8,
    8,
    8,
    8,
    8,
    8,
    8,
    8,
    8,
    8,
    6,
    6,
    6,
    6,
    6,
    6,
    6,
    6,
    6,
    6,
    6,
    6,
    6,
    6,
    6,
    6,
    6,
    6,
    6,
    6,
    6,
    6,
    6,
    6,
    6,
    6,
    6,
    6,
    6,
    6,
    6,
    6,
    6,
    6,
    6,
    6,
    6,
    6,
    6,
    6,
    6,
    6,
    6,
    6,
    6,
    6,
    6,
    6,
    6,
    6,
    6,
    6,
    6,
    6,
    6,
    6,
    6,
    6,
    6,
    6,
    6,
    6,
    6,
    6,
    6,
    6,
    6,
    6,
    6,
    6,
    6,
    6,
    6,
    6,
    6,
    6,
    6,
    6,
    6,
    6,
    6,
    6,
    6,
    6,
    6,
    6,
    6,
    6,
    6,
    6,
    6,
    6,
    6,
    6,
    6,
    6,
    6,
    6,
    6,
    6,
    6,
    6,
    6,
    6,
    6,
    6,
    6,
    6,
    6,
    6,
    6,
    6,
    6,
    6,
    6,
    6,
    6,
    6,
    6,
    6,
    6,
    6,
    6,
    6,
    6,
    6,
    6,
    6
   ]
  },
  {
   "id": 2,
   "name": "objects",
   "type": "tilelayer",
   "width": 32,
   "height": 24,
   "x": 0,
   "y": 0,
   "opacity": 1,
   "visible": true,
   "data": [
    0,
    0,
    0,
    0,
    0,
    0,
    0,
    0,
    0,
    0,
    0,
    0,
    0,
    0,
    0,
    0,
    0,
    0,
    0,
    0,
    0,
    0,
    0,
    0,
    0,
    0,
    0,
    0,
    0,
    0,
    0,
    0,
    12,
    12,
    12,
    12,
    12,
    12,
    12,
    12,
    12,
    12,
    12,
    12,
    12,
    12,
    12,
    0,
    0,
    12,
    12,
    12,
    12,
    12,
    12,
    12,
    12,
    12,
    12,
    12,
    12,
    12,
    12,
    12,
    0,
    0,
    0,
    0,
    0,
    0,
    0,
    0,
    0,
    0,
    0,
    0,
    0,
    0,
    0,
    0,
    0,
    0,
    0,
    0,
    0,
    0,
    0,
    0,
    0,
    0,
    0,
    0,
    0,
    0,
    0,
    0,
    12,
    12,
    0,
    0,
    0,
    0,
    0,
    0,
    0,
    0,
    0,
    0,
    0,
    0,
    0,
    0,
    0,
    0,
    0,
    0,
    0,
    0,
    0,
    0,
    0,
    0,
    0,
    0,
    0,
    0,
    12,
    12,
    0,
    0,
    0,
    0,
    0,
    0,
    0,
    0,
    0,
    0,
    0,
    0,
    0,
    0,
    0,
    0,
    0,
    0,
    0,
    0,
    0,
    0,
    0,
    0,
    0,
    0,
    0,
    0,
    0,
    0,
    0,
    0,
    12,
    12,
    0,
    0,
    0,
    0,
    0,
    0,
    0,
    0,
    0,
    12,
    0,
    0,
    0,
    0,
    0,
    0,
    0,
    0,
    12,
    0,
    0,
    0,
    0,
    0,
    0,
    0,
    0,
    0,
    12,
    12,
    0,
    0,
    0,
    0,
    39,
    41,
    39,
    41,
    39,
    0,
    0,
    0,
    0,
    0,
    0,
    0,
    0,
    0,
    0,
    0,
    0,
    0,
    0,
    39,
    41,
    39,
    41,
    39,
    0,
    0,
    0,
    0,
    12,
    12,
    0,
    0,
    40,
    40,
    42,
    40,
    40,
    0,
    0,
    0,
    0,
    0,
    0,
    0,
    0,
    0,
    0,
    0,
    0,
    0,
    0,
    40,
    40,
    42,
    40,
    40,
    0,
    0,
    12,
    12,
    0,
    0,
    0,
    0,
    0,
    0,
    0,
    19,
    19,
    0,
    0,
    0,
    0,
    0,
    0,
    0,
    0,
    0,
    17,
    17,
    0,
    0,
    0,
    0,
    0,
    0,
    0,
    19,
    19,
    0,
    0,
    0,
    12,
    12,
    0,
    0,
    13,
    13,
    0,
    13,
    13,
    15,
    0,
    0,
    0,
    19,
    14,
    0,
    0,
    17,
    0,
    0,
    0,
    0,
    15,
    13,
    13,
    0,
    13,
    13,
    19,
    0,
    12,
    12,
    0,
    0,
    0,
    0,
    0,
    0,
    0,
    0,
    0,
    0,
    0,
    0,
    0,
    0,
    0,
    0,
    0,
    0,
    0,
    0,
    0,
    0,
    0,
    0,
    0,
    0,
    0,
    0,
    0,
    0,
    0,
    0,
    12,
    12,
    0,
    0,
    17,
    0,
    0,
    0,
    0,
    0,
    0,
    0,
    0,
    0,
    0,
    0,
    0,
    0,
    0,
    0,
    0,
    0,
    0,
    0,
    0,
    0,
    0,
    0,
    12,
    0,
    12,
    12,
    0,
    0,
    0,
    17,
    17,
    0,
    0,
    0,
    19,
    0,
    0,
    0,
    0,
    0,
    0,
    0,
    0,
    0,
    0,
    0,
    0,
    0,
    0,
    16,
    17,
    17,
    0,
    0,
    0,
    0,
    0,
    0,
    12,
    12,
    0,
    0,
    0,
    0,
    0,
    19,
    0,
    19,
    0,
    0,
    0,
    0,
    0,
    0,
    0,
    0,
    0,
    0,
    0,
    0,
    0,
    0,
    0,
    0,
    0,
    0,
    0,
    0,
    12,
    12,
    0,
    0,
    0,
    12,
    0,
    0,
    0,
    0,
    0,
    0,
    0,
    0,
    0,
    0,
    0,
    0,
    0,
    0,
    0,
    0,
    0,
    0,
    19,
    0,
    0,
    0,
    0,
    0,
    0,
    0,
    0,
    0,
    12,
    12,
    0,
    0,
    0,
    17,
    17,
    0,
    16,
    0,
    0,
    0,
    43,
    45,
    45,
    43,
    45,
    45,
    43,
    0,
    0,
    19,
    19,
    0,
    0,
    0,
    0,
    0,
    0,
    0,
    12,
    12,
    0,
    0,
    0,
    0,
    17,
    0,
    0,
    0,
    0,
    0,
    0,
    0,
    44,
    44,
    44,
    46,
    44,
    44,
    44,
    0,
    0,
    0,
    0,
    0,
    0,
    0,
    0,
    0,
    0,
    0,
    0,
    0,
    12,
    12,
    0,
    0,
    0,
    0,
    0,
    0,
    0,
    0,
    0,
    0,
    0,
    0,
    0,
    0,
    0,
    0,
    0,
    0,
    0,
    0,
    0,
    0,
    0,
    0,
    0,
    0,
    0,
    0,
    12,
    12,
    0,
    0,
    0,
    0,
    0,
    0,
    0,
    0,
    0,
    0,
    0,
    0,
    17,
    14,
    0,
    0,
    0,
    0,
    0,
    0,
    0,
    0,
    0,
    0,
    0,
    19,
    19,
    0,
    0,
    0,
    0,
    0,
    0,
    0,
    0,
    0,
    0,
    0,
    0,
    0,
    0,
    0,
    0,
    0,
    0,
    0,
    0,
    0,
    0,
    0,
    0,
    0,
    0,
    0,
    0,
    0,
    0,
    0,
    0,
    0,
    0,
    0,
    0,
    0,
    0,
    0,
    0,
    0,
    0,
    0,
    0,
    0,
    0,
    0,
    0,
    0,
    0,
    0,
    0,
    0,
    0,
    0,
    0,
    0,
    0,
    0,
    0,
    0,
    0,
    0,
    0,
    0,
    0,
    0,
    0,
    0,
    0,
    0,
    0,
    0,
    0,
    0,
    0,
    0,
    0,
    0,
    0,
    0,
    0,
    0,
    0,
    0,
    0,
    0,
    0,
    0,
    0,
    0,
    0,
    0,
    0,
    0,
    0,
    0,
    0,
    0,
    0,
    0,
    0,
    0,
    0,
    0,
    0,
    0,
    0,
    0,
    0,
    0,
    0,
    0,
    0,
    0,
    0,
    0,
    0,
    0,
    0,
    0,
    0,
    0,
    0,
    0,
    0,
    0,
    0,
    0,
    0,
    0,
    0,
    0,
    0,
    0,
    0,
    0,
    0,
    0,
    0,
    0,
    0,
    0,
    0,
    0,
    0,
    0,
    0,
    0,
    0,
    0,
    0,
    0,
    0,
    0,
    0,
    0,
    0,
    0,
    0,
    0,
    0,
    0,
    0,
    0
   ]
  },
  {
   "id": 3,
   "name": "above",
   "type": "tilelayer",
   "width": 32,
   "height": 24,
   "x": 0,
   "y": 0,
   "opacity": 1,
   "visible": true,
   "data": [
    10,
    10,
    10,
    10,
    10,
    10,
    10,
    10,
    10,
    10,
    10,
    10,
    10,
    10,
    10,
    0,
    0,
    10,
    10,
    10,
    10,
    10,
    10,
    10,
    10,
    10,
    10,
    10,
    10,
    10,
    10,
    10,
    0,
    0,
    0,
    0,
    0,
    0,
    0,
    0,
    0,
    0,
    0,
    0,
    0,
    0,
    0,
    0,
    0,
    0,
    0,
    0,
    0,
    0,
    0,
    0,
    0,
    0,
    0,
    0,
    0,
    0,
    0,
    0,
    10,
    10,
    0,
    0,
    0,
    0,
    0,
    0,
    0,
    0,
    0,
    0,
    0,
    0,
    0,
    0,
    0,
    0,
    0,
    0,
    0,
    0,
    0,
    0,
    0,
    0,
    0,
    0,
    0,
    0,
    10,
    10,
    0,
    0,
    0,
    0,
    0,
    0,
    0,
    0,
    0,
    0,
    0,
    0,
    0,
    0,
    0,
    0,
    0,
    0,
    0,
    0,
    0,
    0,
    0,
    0,
    0,
    0,
    0,
    0,
    0,
    0,
    0,
    0,
    10,
    10,
    0,
    0,
    21,
    22,
    22,
    22,
    23,
    0,
    0,
    11,
    0,
    0,
    0,
    0,
    0,
    0,
    0,
    0,
    11,
    0,
    0,
    27,
    28,
    28,
    28,
    29,
    0,
    0,
    10,
    10,
    0,
    0,
    0,
    0,
    24,
    25,
    25,
    25,
    26,
    0,
    0,
    0,
    0,
    0,
    0,
    0,
    0,
    0,
    0,
    0,
    0,
    0,
    0,
    30,
    31,
    31,
    31,
    32,
    0,
    0,
    0,
    0,
    10,
    10,
    0,
    0,
    0,
    0,
    0,
    0,
    0,
    0,
    0,
    0,
    0,
    0,
    0,
    0,
    0,
    0,
    0,
    0,
    0,
    0,
    0,
    0,
    0,
    0,
    0,
    0,
    0,
    0,
    10,
    10,
    0,
    0,
    0,
    0,
    0,
    0,
    0,
    0,
    0,
    0,
    0,
    0,
    0,
    0,
    0,
    0,
    0,
    0,
    0,
    0,
    0,
    0,
    0,
    0,
    0,
    0,
    0,
    0,
    0,
    0,
    0,
    0,
    10,
    10,
    0,
    0,
    0,
    0,
    0,
    0,
    0,
    0,
    0,
    0,
    0,
    0,
    0,
    0,
    0,
    0,
    0,
    0,
    0,
    0,
    0,
    0,
    0,
    0,
    0,
    0,
    0,
    0,
    10,
    10,
    0,
    0,
    0,
    0,
    0,
    0,
    0,
    0,
    0,
    0,
    0,
    0,
    0,
    0,
    0,
    0,
    0,
    0,
    0,
    0,
    0,
    0,
    0,
    0,
    0,
    0,
    0,
    0,
    0,
    0,
    0,
    0,
    10,
    10,
    0,
    0,
    0,
    0,
    0,
    0,
    0,
    0,
    0,
    0,
    0,
    0,
    0,
    0,
    0,
    0,
    0,
    0,
    0,
    0,
    0,
    0,
    0,
    0,
    0,
    0,
    11,
    0,
    10,
    10,
    0,
    0,
    0,
    0,
    0,
    0,
    0,
    0,
    0,
    0,
    0,
    0,
    0,
    0,
    0,
    0,
    0,
    0,
    0,
    0,
    0,
    0,
    0,
    0,
    0,
    0,
    0,
    0,
    0,
    0,
    0,
    0,
    10,
    10,
    0,
    0,
    0,
    0,
    0,
    0,
    0,
    0,
    0,
    0,
    0,
    0,
    0,
    0,
    0,
    0,
    0,
    0,
    0,
    0,
    0,
    0,
    0,
    0,
    0,
    0,
    0,
    0,
    10,
    10,
    0,
    0,
    0,
    11,
    0,
    0,
    0,
    0,
    0,
    0,
    0,
    0,
    33,
    34,
    34,
    34,
    34,
    34,
    35,
    0,
    0,
    0,
    0,
    0,
    0,
    0,
    0,
    0,
    0,
    0,
    0,
    0,
    10,
    10,
    0,
    0,
    0,
    0,
    0,
    0,
    0,
    0,
    0,
    0,
    36,
    37,
    37,
    37,
    37,
    37,
    38,
    0,
    0,
    0,
    0,
    0,
    0,
    0,
    0,
    0,
    0,
    0,
    10,
    10,
    0,
    0,
    0,
    0,
    0,
    0,
    0,
    0,
    0,
    0,
    0,
    0,
    0,
    0,
    0,
    0,
    0,
    0,
    0,
    0,
    0,
    0,
    0,
    0,
    0,
    0,
    0,
    0,
    0,
    0,
    0,
    0,
    10,
    10,
    0,
    0,
    0,
    0,
    0,
    0,
    0,
    0,
    0,
    0,
    0,
    0,
    0,
    0,
    0,
    0,
    0,
    0,
    0,
    0,
    0,
    0,
    0,
    0,
    0,
    0,
    0,
    0,
    10,
    10,
    0,
    0,
    0,
    0,
    0,
    0,
    0,
    0,
    0,
    0,
    0,
    0,
    0,
    0,
    0,
    0,
    0,
    0,
    0,
    0,
    0,
    0,
    0,
    0,
    0,
    0,
    0,
    0,
    0,
    0,
    0,
    0,
    0,
    0,
    0,
    0,
    0,
    0,
    0,
    0,
    0,
    0,
    0,
    0,
    0,
    0,
    0,
    0,
    0,
    0,
    0,
    0,
    0,
    0,
    0,
    0,
    0,
    0,
    0,
    0,
    0,
    0,
    0,
    0,
    0,
    0,
    0,
    0,
    0,
    0,
    0,
    0,
    0,
    0,
    0,
    0,
    0,
    0,
    0,
    0,
    0,
    0,
    0,
    0,
    0,
    0,
    0,
    0,
    0,
    0,
    0,
    0,
    0,
    0,
    0,
    0,
    0,
    0,
    0,
    0,
    0,
    0,
    0,
    0,
    0,
    0,
    0,
    0,
    0,
    0,
    0,
    0,
    0,
    0,
    0,
    0,
    0,
    0,
    0,
    0,
    0,
    0,
    0,
    0,
    0,
    0,
    0,
    0,
    0,
    0,
    0,
    0,
    0,
    0,
    0,
    0,
    0,
    0,
    0,
    0,
    0,
    0,
    0,
    0,
    0,
    0,
    0,
    0,
    0,
    0,
    0,
    0,
    0,
    0,
    0,
    0,
    0,
    0,
    0,
    0,
    0,
    0,
    0,
    0,
    0,
    0,
    0,
    0,
    0,
    0,
    0,
    0,
    0,
    0,
    0,
    0,
    0,
    0,
    0,
    0,
    0,
    0,
    0,
    0,
    0,
    0,
    0,
    0,
    0,
    0,
    0,
    0,
    0,
    0,
    0,
    0,
    0,
    0,
    0,
    0,
    0,
    0,
    0,
    0,
    0,
    0,
    0,
    0,
    0,
    0,
    0,
    0,
    0,
    0,
    0,
    0,
    0,
    0,
    0,
    0,
    0,
    0,
    0,
    0
   ]
  },
  {
   "id": 4,
   "name": "warps",
   "type": "objectgroup",
   "draworder": "topdown",
   "opacity": 1,
   "visible": true,
   "x": 0,
   "y": 0,
   "objects": [
    {
     "id": 1,
     "name": "player_house",
     "type": "warp",
     "x": 96,
     "y": 112,
     "width": 16,
     "height": 16,
     "rotation": 0,
     "visible": true,
     "properties": [
      {
       "name": "target",
       "type": "string",
       "value": "player_house_interior"
      }
     ]
    },
    {
     "id": 2,
     "name": "rival_house",
     "type": "warp",
     "x": 400,
     "y": 112,
     "width": 16,
     "height": 16,
     "rotation": 0,
     "visible": true,
     "properties": [
      {
       "name": "target",
       "type": "string",
       "value": "rival_house_interior"
      }
     ]
    },
    {
     "id": 3,
     "name": "village_lab",
     "type": "warp",
     "x": 240,
     "y": 256,
     "width": 16,
     "height": 16,
     "rotation": 0,
     "visible": true,
     "properties": [
      {
       "name": "target",
       "type": "string",
       "value": "lab_interior"
      }
     ]
    },
    {
     "id": 4,
     "name": "route_north",
     "type": "exit",
     "x": 240,
     "y": 0,
     "width": 32,
     "height": 32,
     "rotation": 0,
     "visible": true,
     "properties": [
      {
       "name": "target",
       "type": "string",
       "value": "route_1"
      }
     ]
    }
   ]
  },
  {
   "id": 5,
   "name": "interactions",
   "type": "objectgroup",
   "draworder": "topdown",
   "opacity": 1,
   "visible": true,
   "x": 0,
   "y": 0,
   "objects": [
    {
     "id": 5,
     "name": "welcome_sign",
     "type": "sign",
     "x": 224,
     "y": 144,
     "width": 16,
     "height": 16,
     "rotation": 0,
     "visible": true,
     "properties": [
      {
       "name": "text",
       "type": "string",
       "value": "MEADOWBROOK VILLAGE\nWhere the tall grass meets the sea."
      }
     ]
    },
    {
     "id": 6,
     "name": "lab_sign",
     "type": "sign",
     "x": 208,
     "y": 288,
     "width": 16,
     "height": 16,
     "rotation": 0,
     "visible": true,
     "properties": [
      {
       "name": "text",
       "type": "string",
       "value": "MEADOWBROOK RESEARCH LAB\nVisitors welcome. Please wipe your boots."
      }
     ]
    },
    {
     "id": 7,
     "name": "mailbox_home",
     "type": "sign",
     "x": 144,
     "y": 144,
     "width": 16,
     "height": 16,
     "rotation": 0,
     "visible": true,
     "properties": [
      {
       "name": "text",
       "type": "string",
       "value": "Your mailbox.\nThere is nothing inside."
      }
     ]
    },
    {
     "id": 8,
     "name": "mailbox_rival",
     "type": "sign",
     "x": 352,
     "y": 144,
     "width": 16,
     "height": 16,
     "rotation": 0,
     "visible": true,
     "properties": [
      {
       "name": "text",
       "type": "string",
       "value": "Your rival's mailbox.\nBest not to snoop."
      }
     ]
    },
    {
     "id": 9,
     "name": "spawn",
     "type": "spawn",
     "x": 240,
     "y": 176,
     "width": 16,
     "height": 16,
     "rotation": 0,
     "visible": true,
     "properties": []
    }
   ]
  }
 ],
 "tilesets": [
  {
   "firstgid": 1,
   "name": "meadowbrook",
   "image": "tileset.png",
   "imagewidth": 256,
   "imageheight": 48,
   "tilewidth": 16,
   "tileheight": 16,
   "tilecount": 46,
   "columns": 16,
   "margin": 0,
   "spacing": 0,
   "tiles": [
    {
     "id": 0,
     "properties": [
      {
       "name": "name",
       "type": "string",
       "value": "grass_a"
      }
     ]
    },
    {
     "id": 1,
     "properties": [
      {
       "name": "name",
       "type": "string",
       "value": "grass_b"
      }
     ]
    },
    {
     "id": 2,
     "properties": [
      {
       "name": "name",
       "type": "string",
       "value": "grass_c"
      }
     ]
    },
    {
     "id": 3,
     "properties": [
      {
       "name": "name",
       "type": "string",
       "value": "tall_grass"
      },
      {
       "name": "encounter",
       "type": "bool",
       "value": true
      }
     ]
    },
    {
     "id": 4,
     "properties": [
      {
       "name": "name",
       "type": "string",
       "value": "path"
      }
     ]
    },
    {
     "id": 5,
     "properties": [
      {
       "name": "name",
       "type": "string",
       "value": "water_1"
      },
      {
       "name": "solid",
       "type": "bool",
       "value": true
      }
     ],
     "animation": [
      {
       "tileid": 5,
       "duration": 600
      },
      {
       "tileid": 6,
       "duration": 600
      }
     ]
    },
    {
     "id": 6,
     "properties": [
      {
       "name": "name",
       "type": "string",
       "value": "water_2"
      },
      {
       "name": "solid",
       "type": "bool",
       "value": true
      }
     ]
    },
    {
     "id": 7,
     "properties": [
      {
       "name": "name",
       "type": "string",
       "value": "shore_1"
      },
      {
       "name": "solid",
       "type": "bool",
       "value": true
      }
     ],
     "animation": [
      {
       "tileid": 7,
       "duration": 600
      },
      {
       "tileid": 8,
       "duration": 600
      }
     ]
    },
    {
     "id": 8,
     "properties": [
      {
       "name": "name",
       "type": "string",
       "value": "shore_2"
      },
      {
       "name": "solid",
       "type": "bool",
       "value": true
      }
     ]
    },
    {
     "id": 9,
     "properties": [
      {
       "name": "name",
       "type": "string",
       "value": "tree_top"
      },
      {
       "name": "solid",
       "type": "bool",
       "value": true
      }
     ]
    },
    {
     "id": 10,
     "properties": [
      {
       "name": "name",
       "type": "string",
       "value": "tree_top_round"
      },
      {
       "name": "solid",
       "type": "bool",
       "value": true
      }
     ]
    },
    {
     "id": 11,
     "properties": [
      {
       "name": "name",
       "type": "string",
       "value": "tree_bottom"
      },
      {
       "name": "solid",
       "type": "bool",
       "value": true
      }
     ]
    },
    {
     "id": 12,
     "properties": [
      {
       "name": "name",
       "type": "string",
       "value": "fence"
      },
      {
       "name": "solid",
       "type": "bool",
       "value": true
      }
     ]
    },
    {
     "id": 13,
     "properties": [
      {
       "name": "name",
       "type": "string",
       "value": "sign"
      },
      {
       "name": "solid",
       "type": "bool",
       "value": true
      }
     ]
    },
    {
     "id": 14,
     "properties": [
      {
       "name": "name",
       "type": "string",
       "value": "mailbox"
      },
      {
       "name": "solid",
       "type": "bool",
       "value": true
      }
     ]
    },
    {
     "id": 15,
     "properties": [
      {
       "name": "name",
       "type": "string",
       "value": "rock"
      },
      {
       "name": "solid",
       "type": "bool",
       "value": true
      }
     ]
    },
    {
     "id": 16,
     "properties": [
      {
       "name": "name",
       "type": "string",
       "value": "flower_red_1"
      }
     ],
     "animation": [
      {
       "tileid": 16,
       "duration": 600
      },
      {
       "tileid": 17,
       "duration": 600
      }
     ]
    },
    {
     "id": 17,
     "properties": [
      {
       "name": "name",
       "type": "string",
       "value": "flower_red_2"
      }
     ]
    },
    {
     "id": 18,
     "properties": [
      {
       "name": "name",
       "type": "string",
       "value": "flower_yellow_1"
      }
     ],
     "animation": [
      {
       "tileid": 18,
       "duration": 600
      },
      {
       "tileid": 19,
       "duration": 600
      }
     ]
    },
    {
     "id": 19,
     "properties": [
      {
       "name": "name",
       "type": "string",
       "value": "flower_yellow_2"
      }
     ]
    },
    {
     "id": 20,
     "properties": [
      {
       "name": "name",
       "type": "string",
       "value": "roof_red_top_l"
      },
      {
       "name": "solid",
       "type": "bool",
       "value": true
      }
     ]
    },
    {
     "id": 21,
     "properties": [
      {
       "name": "name",
       "type": "string",
       "value": "roof_red_top_m"
      },
      {
       "name": "solid",
       "type": "bool",
       "value": true
      }
     ]
    },
    {
     "id": 22,
     "properties": [
      {
       "name": "name",
       "type": "string",
       "value": "roof_red_top_r"
      },
      {
       "name": "solid",
       "type": "bool",
       "value": true
      }
     ]
    },
    {
     "id": 23,
     "properties": [
      {
       "name": "name",
       "type": "string",
       "value": "roof_red_bot_l"
      },
      {
       "name": "solid",
       "type": "bool",
       "value": true
      }
     ]
    },
    {
     "id": 24,
     "properties": [
      {
       "name": "name",
       "type": "string",
       "value": "roof_red_bot_m"
      },
      {
       "name": "solid",
       "type": "bool",
       "value": true
      }
     ]
    },
    {
     "id": 25,
     "properties": [
      {
       "name": "name",
       "type": "string",
       "value": "roof_red_bot_r"
      },
      {
       "name": "solid",
       "type": "bool",
       "value": true
      }
     ]
    },
    {
     "id": 26,
     "properties": [
      {
       "name": "name",
       "type": "string",
       "value": "roof_blue_top_l"
      },
      {
       "name": "solid",
       "type": "bool",
       "value": true
      }
     ]
    },
    {
     "id": 27,
     "properties": [
      {
       "name": "name",
       "type": "string",
       "value": "roof_blue_top_m"
      },
      {
       "name": "solid",
       "type": "bool",
       "value": true
      }
     ]
    },
    {
     "id": 28,
     "properties": [
      {
       "name": "name",
       "type": "string",
       "value": "roof_blue_top_r"
      },
      {
       "name": "solid",
       "type": "bool",
       "value": true
      }
     ]
    },
    {
     "id": 29,
     "properties": [
      {
       "name": "name",
       "type": "string",
       "value": "roof_blue_bot_l"
      },
      {
       "name": "solid",
       "type": "bool",
       "value": true
      }
     ]
    },
    {
     "id": 30,
     "properties": [
      {
       "name": "name",
       "type": "string",
       "value": "roof_blue_bot_m"
      },
      {
       "name": "solid",
       "type": "bool",
       "value": true
      }
     ]
    },
    {
     "id": 31,
     "properties": [
      {
       "name": "name",
       "type": "string",
       "value": "roof_blue_bot_r"
      },
      {
       "name": "solid",
       "type": "bool",
       "value": true
      }
     ]
    },
    {
     "id": 32,
     "properties": [
      {
       "name": "name",
       "type": "string",
       "value": "roof_gray_top_l"
      },
      {
       "name": "solid",
       "type": "bool",
       "value": true
      }
     ]
    },
    {
     "id": 33,
     "properties": [
      {
       "name": "name",
       "type": "string",
       "value": "roof_gray_top_m"
      },
      {
       "name": "solid",
       "type": "bool",
       "value": true
      }
     ]
    },
    {
     "id": 34,
     "properties": [
      {
       "name": "name",
       "type": "string",
       "value": "roof_gray_top_r"
      },
      {
       "name": "solid",
       "type": "bool",
       "value": true
      }
     ]
    },
    {
     "id": 35,
     "properties": [
      {
       "name": "name",
       "type": "string",
       "value": "roof_gray_bot_l"
      },
      {
       "name": "solid",
       "type": "bool",
       "value": true
      }
     ]
    },
    {
     "id": 36,
     "properties": [
      {
       "name": "name",
       "type": "string",
       "value": "roof_gray_bot_m"
      },
      {
       "name": "solid",
       "type": "bool",
       "value": true
      }
     ]
    },
    {
     "id": 37,
     "properties": [
      {
       "name": "name",
       "type": "string",
       "value": "roof_gray_bot_r"
      },
      {
       "name": "solid",
       "type": "bool",
       "value": true
      }
     ]
    },
    {
     "id": 38,
     "properties": [
      {
       "name": "name",
       "type": "string",
       "value": "house_wall_upper"
      },
      {
       "name": "solid",
       "type": "bool",
       "value": true
      }
     ]
    },
    {
     "id": 39,
     "properties": [
      {
       "name": "name",
       "type": "string",
       "value": "house_wall_lower"
      },
      {
       "name": "solid",
       "type": "bool",
       "value": true
      }
     ]
    },
    {
     "id": 40,
     "properties": [
      {
       "name": "name",
       "type": "string",
       "value": "house_window"
      },
      {
       "name": "solid",
       "type": "bool",
       "value": true
      }
     ]
    },
    {
     "id": 41,
     "properties": [
      {
       "name": "name",
       "type": "string",
       "value": "house_door"
      },
      {
       "name": "door",
       "type": "bool",
       "value": true
      }
     ]
    },
    {
     "id": 42,
     "properties": [
      {
       "name": "name",
       "type": "string",
       "value": "lab_wall_upper"
      },
      {
       "name": "solid",
       "type": "bool",
       "value": true
      }
     ]
    },
    {
     "id": 43,
     "properties": [
      {
       "name": "name",
       "type": "string",
       "value": "lab_wall_lower"
      },
      {
       "name": "solid",
       "type": "bool",
       "value": true
      }
     ]
    },
    {
     "id": 44,
     "properties": [
      {
       "name": "name",
       "type": "string",
       "value": "lab_window"
      },
      {
       "name": "solid",
       "type": "bool",
       "value": true
      }
     ]
    },
    {
     "id": 45,
     "properties": [
      {
       "name": "name",
       "type": "string",
       "value": "lab_door"
      },
      {
       "name": "door",
       "type": "bool",
       "value": true
      }
     ]
    }
   ]
  }
 ]
}